src/next/cmd/sc_toggleobjectrotatemode.svg

<svg height="16" width="16" xmlns="http://www.w3.org/2000/svg" xmlns:xlink="http://www.w3.org/1999/xlink"><linearGradient id="a"><stop offset="0" stop-color="#0968ef"/><stop offset="1" stop-color="#aecffc"/></linearGradient><linearGradient id="b"><stop offset="0" stop-color="#fff"/><stop offset="1" stop-color="#fff" stop-opacity="0"/></linearGradient><linearGradient id="c" gradientTransform="matrix(.20798001 -.97813308 .97813308 .20798001 -27.791148 164.717275)" gradientUnits="userSpaceOnUse" x1="113.15723" x2="39.268185" xlink:href="#a" y1="25.786163" y2="25.786163"/><linearGradient id="d" gradientTransform="matrix(1.5275638 -2.6458181 2.2162152 1.280019 -187.60223 -4.895489)" gradientUnits="userSpaceOnUse" x1="20" x2="20" xlink:href="#b" y1="78.165009" y2="109.84906"/><linearGradient id="e" gradientTransform="matrix(.7637819 0 0 .8888892 -77.368144 35.414217)" gradientUnits="userSpaceOnUse" x1="80.34671" x2="73.462685" y1="17.268518" y2="107.95493"><stop offset="0" stop-color="#c7cdd7"/><stop offset="1" stop-color="#fff"/></linearGradient><linearGradient id="f" gradientTransform="matrix(0 -1.4472709 2 0 -24.012579 175.75075)" gradientUnits="userSpaceOnUse" x1="102.31124" x2="74.330322" xlink:href="#b" y1="-5.830213" y2="32"/><linearGradient id="g" gradientTransform="matrix(.7674922 0 0 .888889 -109.32704 -16.901465)" gradientUnits="userSpaceOnUse" x1="42.728634" x2="124.09152" y1="99.999985" y2="27.999992"><stop offset="0" stop-color="#fff"/><stop offset=".42597079" stop-color="#fff"/><stop offset=".5892781" stop-color="#f1f1f1"/><stop offset=".80219781" stop-color="#eaeaea"/><stop offset="1" stop-color="#dfdfdf"/></linearGradient><linearGradient id="h" gradientTransform="matrix(.08948859 0 0 .1301193 -110.22302 -71.516115)" gradientUnits="userSpaceOnUse" x1="399.77466" x2="399.77466" y1="1164.6696" y2="549.06134"><stop offset="0" stop-color="#b4b4b6"/><stop offset=".5" stop-color="#9c9ca1"/><stop offset="1" stop-color="#cdcdd1"/></linearGradient><linearGradient id="i" gradientTransform="matrix(-.20797998 .97813308 -.97813308 -.20797998 155.221902 -30.086845)" gradientUnits="userSpaceOnUse" x1="113.15723" x2="39.268185" xlink:href="#a" y1="25.786163" y2="25.786163"/><g transform="matrix(.125 0 0 .125 .000786 0)"><rect fill="url(#h)" height="80" opacity=".75" rx="2.631402" ry="2.769231" transform="rotate(-90)" width="88.415092" x="-104.41509" y="-.012579"/><rect fill="url(#g)" fill-rule="evenodd" height="64" rx="1.381486" ry="1.444445" transform="rotate(-90)" width="73.679245" x="-97.047165" y="7.987421"/><path d="m7.9874211 43.325463c18.8561649 15.462012 39.2512319 29.956222 63.9999999 38.985858v-39.392904c-23.69396-2.20632-45.098309-9.09384-63.9999999-18.588384z" fill="url(#f)" fill-rule="evenodd"/><rect fill="#81a2d1" height="80.000008" rx="2.618681" ry="2.553105" transform="matrix(.5 -.8660254 .8659431 .5001426 0 0)" width="87.987671" x="-72.479942" y="52.303116"/><g fill-rule="evenodd"><rect fill="url(#e)" height="64.000015" rx="1.374807" ry="1.331712" transform="matrix(.5 -.8660254 .8659431 .5001426 0 0)" width="73.323059" x="-65.147636" y="60.303104"/><path d="m21.936575 82.610917c-1.269405 2.198674-.878996 4.784458.894464 5.808755l22.36992 12.920198c15.143493-20.024361 27.605033-41.053316 37.007812-63.299629l-22.716205-13.120195c-1.773467-1.024298-4.20775-.06998-5.477155 2.128698z" fill="url(#d)"/><path d="m24.554181 53.164737-24.554181 19.315594 3.061239 4.714611 13.384186-5.127213c-7.789302 36.633211 10.184243 51.204661 30.081606 55.932271l1.47009-8.12346c-15.380362-4.61498-30.596412-13.83629-23.726632-46.144972l9.943365 10.08734 4.91147-3.019378z" fill="url(#c)"/><path d="m102.87658 81.465696 24.55418-19.31559-3.06124-4.71461-13.38419 5.12721c7.78931-36.633212-10.18424-51.204662-30.081605-55.9322723l-1.47009 8.1234603c15.380362 4.61498 30.596415 13.83629 23.726635 46.144972l-9.943364-10.087341-4.911471 3.019381z" fill="url(#i)"/></g></g></svg>

<?xml version="1.0" encoding="UTF-8" standalone="no"?>
<!-- Created with Inkscape (http://www.inkscape.org/) -->

<svg
   xmlns:dc="http://purl.org/dc/elements/1.1/"
   xmlns:cc="http://creativecommons.org/ns#"
   xmlns:rdf="http://www.w3.org/1999/02/22-rdf-syntax-ns#"
   xmlns:svg="http://www.w3.org/2000/svg"
   xmlns="http://www.w3.org/2000/svg"
   xmlns:xlink="http://www.w3.org/1999/xlink"
   xmlns:sodipodi="http://sodipodi.sourceforge.net/DTD/sodipodi-0.dtd"
   xmlns:inkscape="http://www.inkscape.org/namespaces/inkscape"
   width="16"
   height="16"
   id="svg2"
   sodipodi:version="0.32"
   inkscape:version="0.92.4 (unknown)"
   version="1.0"
   sodipodi:docname="sc_toggleobjectrotatemode.svg"
   inkscape:output_extension="org.inkscape.output.svgz.inkscape"
   inkscape:export-filename="/home/rizmut/Dokumen/Rizmut/Github/libreoffice-style-karasa-jaga/build/next/cmd/sc_toggleobjectrotatemode.png"
   inkscape:export-xdpi="96"
   inkscape:export-ydpi="96">
  <defs
     id="defs4">
    <linearGradient
       id="linearGradient2399">
      <stop
         id="stop2401"
         offset="0"
         style="stop-color:#0968ef;stop-opacity:1;" />
      <stop
         id="stop2403"
         offset="1"
         style="stop-color:#aecffc;stop-opacity:1;" />
    </linearGradient>
    <linearGradient
       id="linearGradient2431">
      <stop
         style="stop-color:#ffffff;stop-opacity:1;"
         offset="0"
         id="stop2433" />
      <stop
         id="stop2435"
         offset="0.42597079"
         style="stop-color:#ffffff;stop-opacity:1;" />
      <stop
         id="stop2437"
         offset="0.5892781"
         style="stop-color:#f1f1f1;stop-opacity:1;" />
      <stop
         style="stop-color:#eaeaea;stop-opacity:1;"
         offset="0.80219781"
         id="stop2439" />
      <stop
         style="stop-color:#dfdfdf;stop-opacity:1;"
         offset="1"
         id="stop2441" />
    </linearGradient>
    <linearGradient
       id="linearGradient7422">
      <stop
         style="stop-color:#b4b4b6;stop-opacity:1;"
         offset="0"
         id="stop7424" />
      <stop
         id="stop5348"
         offset="0.5"
         style="stop-color:#9c9ca1;stop-opacity:1;" />
      <stop
         id="stop7426"
         offset="1"
         style="stop-color:#cdcdd1;stop-opacity:1;" />
    </linearGradient>
    <linearGradient
       id="linearGradient3310"
       inkscape:collect="always">
      <stop
         id="stop3312"
         offset="0"
         style="stop-color:#ffffff;stop-opacity:1;" />
      <stop
         id="stop3314"
         offset="1"
         style="stop-color:#ffffff;stop-opacity:0;" />
    </linearGradient>
    <linearGradient
       id="linearGradient3314"
       inkscape:collect="always">
      <stop
         id="stop3316"
         offset="0"
         style="stop-color:#ffffff;stop-opacity:1;" />
      <stop
         id="stop3318"
         offset="1"
         style="stop-color:#ffffff;stop-opacity:0;" />
    </linearGradient>
    <linearGradient
       id="linearGradient3323">
      <stop
         style="stop-color:#c7cdd7;stop-opacity:1;"
         offset="0"
         id="stop3325" />
      <stop
         style="stop-color:#ffffff;stop-opacity:1;"
         offset="1"
         id="stop3327" />
    </linearGradient>
    <linearGradient
       inkscape:collect="always"
       xlink:href="#linearGradient2399"
       id="linearGradient2201"
       gradientUnits="userSpaceOnUse"
       gradientTransform="rotate(-77.995998,87.816136,99.519468)"
       x1="113.15723"
       y1="25.786163"
       x2="39.268185"
       y2="25.786163" />
    <linearGradient
       inkscape:collect="always"
       xlink:href="#linearGradient3314"
       id="linearGradient2204"
       gradientUnits="userSpaceOnUse"
       gradientTransform="matrix(1.5275638,-2.6458181,2.2162152,1.280019,-187.60223,-4.8954894)"
       x1="20"
       y1="78.165009"
       x2="20"
       y2="109.84906" />
    <linearGradient
       inkscape:collect="always"
       xlink:href="#linearGradient3323"
       id="linearGradient2207"
       gradientUnits="userSpaceOnUse"
       gradientTransform="matrix(0.7637819,0,0,0.8888892,-77.368144,35.414217)"
       x1="80.34671"
       y1="17.268518"
       x2="73.462685"
       y2="107.95493" />
    <linearGradient
       inkscape:collect="always"
       xlink:href="#linearGradient3310"
       id="linearGradient2211"
       gradientUnits="userSpaceOnUse"
       gradientTransform="matrix(0,-1.4472709,2,0,-24.012579,175.75075)"
       x1="102.31124"
       y1="-5.8302126"
       x2="74.330322"
       y2="32" />
    <linearGradient
       inkscape:collect="always"
       xlink:href="#linearGradient2431"
       id="linearGradient2214"
       gradientUnits="userSpaceOnUse"
       gradientTransform="matrix(0.7674922,0,0,0.888889,-109.32704,-16.901465)"
       x1="42.728634"
       y1="99.999985"
       x2="124.09152"
       y2="27.999992" />
    <linearGradient
       inkscape:collect="always"
       xlink:href="#linearGradient7422"
       id="linearGradient2217"
       gradientUnits="userSpaceOnUse"
       gradientTransform="matrix(0.08948859,0,0,0.1301193,-110.22302,-71.516115)"
       x1="399.77466"
       y1="1164.6696"
       x2="399.77466"
       y2="549.06134" />
    <linearGradient
       inkscape:collect="always"
       xlink:href="#linearGradient2399"
       id="linearGradient2221"
       gradientUnits="userSpaceOnUse"
       gradientTransform="rotate(102.004,89.792005,47.800201)"
       x1="113.15723"
       y1="25.786163"
       x2="39.268185"
       y2="25.786163" />
  </defs>
  <sodipodi:namedview
     id="base"
     pagecolor="#ffffff"
     bordercolor="#666666"
     borderopacity="1.0"
     gridtolerance="10000"
     guidetolerance="10"
     objecttolerance="10"
     inkscape:pageopacity="0.0"
     inkscape:pageshadow="2"
     inkscape:zoom="9.9374999"
     inkscape:cx="6.1760275"
     inkscape:cy="3.2068711"
     inkscape:document-units="px"
     inkscape:current-layer="g881"
     width="128px"
     height="128px"
     showgrid="true"
     showborder="true"
     inkscape:window-width="796"
     inkscape:window-height="737"
     inkscape:window-x="12"
     inkscape:window-y="23">
    <inkscape:grid
       id="GridFromPre046Settings"
       type="xygrid"
       originx="0"
       originy="0"
       spacingx="0.5"
       spacingy="0.5"
       color="#0000ff"
       empcolor="#0000ff"
       opacity="0.2"
       empopacity="0.4"
       empspacing="2" />
  </sodipodi:namedview>
  <metadata
     id="metadata7">
    <rdf:RDF>
      <cc:Work
         rdf:about="">
        <dc:format>image/svg+xml</dc:format>
        <dc:type
           rdf:resource="http://purl.org/dc/dcmitype/StillImage" />
        <dc:title></dc:title>
      </cc:Work>
    </rdf:RDF>
  </metadata>
  <g
     inkscape:label="Layer 1"
     inkscape:groupmode="layer"
     id="layer1"
     transform="translate(0,-112)">
    <g
       id="g2497"
       inkscape:label="Livello 1">
      <g
         id="g881"
         transform="matrix(0.125,0,0,0.125,7.8618218e-4,112)">
        <rect
           transform="rotate(-90)"
           rx="2.6314015"
           ry="2.7692311"
           inkscape:r_cy="true"
           inkscape:r_cx="true"
           y="-0.012578915"
           x="-104.41509"
           height="80"
           width="88.415092"
           id="rect3281"
           style="opacity:0.75;fill:url(#linearGradient2217);fill-opacity:1;fill-rule:nonzero;stroke:none;stroke-width:2;stroke-linecap:round;stroke-linejoin:round;stroke-miterlimit:4;stroke-dasharray:none;stroke-dashoffset:4;stroke-opacity:1"
           inkscape:export-filename="/home/pinheiro/Desktop/mock2.png"
           inkscape:export-xdpi="90"
           inkscape:export-ydpi="90" />
        <rect
           transform="rotate(-90)"
           style="fill:url(#linearGradient2214);fill-opacity:1;fill-rule:evenodd;stroke:none;stroke-width:8;stroke-linecap:round;stroke-linejoin:round;stroke-miterlimit:4;stroke-dasharray:none;stroke-opacity:1"
           id="rect3283"
           width="73.679245"
           height="64"
           x="-97.047165"
           y="7.987421"
           rx="1.3814856"
           ry="1.4444445" />
        <path
           style="fill:url(#linearGradient2211);fill-opacity:1;fill-rule:evenodd;stroke:none;stroke-width:1px;stroke-linecap:butt;stroke-linejoin:miter;stroke-opacity:1"
           d="M 7.9874211,43.325463 C 26.843586,58.787475 47.238653,73.281685 71.987421,82.311321 V 42.918417 C 48.293461,40.712097 26.889112,33.824577 7.9874211,24.330033 Z"
           id="path3285"
           inkscape:connector-curvature="0" />
        <rect
           transform="matrix(0.5,-0.8660254,0.8659431,0.5001426,0,0)"
           inkscape:export-ydpi="90"
           inkscape:export-xdpi="90"
           inkscape:export-filename="/home/pinheiro/Desktop/mock2.png"
           style="fill:#81a2d1;fill-opacity:1;fill-rule:nonzero;stroke:none;stroke-width:2;stroke-linecap:round;stroke-linejoin:round;stroke-miterlimit:4;stroke-dasharray:none;stroke-dashoffset:4;stroke-opacity:1"
           id="rect2324"
           width="87.987671"
           height="80.000008"
           x="-72.479942"
           y="52.303116"
           inkscape:r_cx="true"
           inkscape:r_cy="true"
           ry="2.5531051"
           rx="2.6186807" />
        <rect
           transform="matrix(0.5,-0.8660254,0.8659431,0.5001426,0,0)"
           ry="1.3317124"
           rx="1.374807"
           y="60.303104"
           x="-65.147636"
           height="64.000015"
           width="73.323059"
           id="rect2326"
           style="fill:url(#linearGradient2207);fill-opacity:1;fill-rule:evenodd;stroke:none;stroke-width:8;stroke-linecap:round;stroke-linejoin:round;stroke-miterlimit:4;stroke-dasharray:none;stroke-opacity:1" />
        <path
           style="fill:url(#linearGradient2204);fill-opacity:1;fill-rule:evenodd;stroke:none;stroke-width:8;stroke-linecap:round;stroke-linejoin:round;stroke-miterlimit:4;stroke-dasharray:none;stroke-opacity:1"
           d="m 21.936575,82.610917 c -1.269405,2.198674 -0.878996,4.784458 0.894464,5.808755 l 22.36992,12.920198 C 60.344452,81.315509 72.805992,60.286554 82.208771,38.040241 L 59.492566,24.920046 c -1.773467,-1.024298 -4.20775,-0.06998 -5.477155,2.128698 z"
           id="rect3306"
           inkscape:connector-curvature="0" />
        <path
           sodipodi:nodetypes="cccccccccc"
           id="path2537"
           d="M 24.554181,53.164737 0,72.480331 3.061239,77.194942 16.445425,72.067729 C 8.656123,108.70094 26.629668,123.27239 46.527031,128 l 1.47009,-8.12346 C 32.616759,115.26156 17.400709,106.04025 24.270489,73.731568 l 9.943365,10.08734 4.91147,-3.019378 z"
           style="fill:url(#linearGradient2201);fill-opacity:1;fill-rule:evenodd;stroke:none;stroke-width:1px;stroke-linecap:butt;stroke-linejoin:miter;stroke-opacity:1"
           inkscape:connector-curvature="0" />
        <path
           style="fill:url(#linearGradient2221);fill-opacity:1;fill-rule:evenodd;stroke:none;stroke-width:1px;stroke-linecap:butt;stroke-linejoin:miter;stroke-opacity:1"
           d="m 102.87658,81.465696 24.55418,-19.31559 -3.06124,-4.71461 -13.38419,5.12721 C 118.77464,25.929494 100.80109,11.358044 80.903725,6.6304337 l -1.47009,8.1234603 c 15.380362,4.61498 30.596415,13.83629 23.726635,46.144972 l -9.943364,-10.087341 -4.911471,3.019381 z"
           id="path2219"
           sodipodi:nodetypes="cccccccccc"
           inkscape:connector-curvature="0" />
      </g>
    </g>
  </g>
</svg>
